src/categories-icons-sprite/categories/svg-cat-books-study.svg

<svg width="30" height="30" viewBox="0 0 30 30" fill="none" xmlns="http://www.w3.org/2000/svg">
<path class="p-663325" d="M17.7832 5.33203H16.0254C16.0254 4.83971 15.4923 4.45312 15 4.45312C14.5077 4.45312 13.9746 4.83971 13.9746 5.33203H12.2168C12.2168 3.87291 13.5409 2.69531 15 2.69531C16.4591 2.69531 17.7832 3.87291 17.7832 5.33203Z" fill="#4D98CB"/>
<path class="p-582B1F" d="M27.0625 3.57422H29.1208C29.6062 3.57422 29.9997 3.96772 29.9997 4.45312C29.9997 4.93853 29.6062 5.33203 29.1208 5.33203H27.0625V3.57422Z" fill="#4D98CB"/>
<path class="p-663325" d="M0 4.45312C0 3.96772 0.3935 3.57422 0.878906 3.57422H2.93724V5.33203H0.878906C0.3935 5.33203 0 4.93853 0 4.45312Z" fill="#4D98CB"/>
<path class="p-FAECD8" d="M29.1211 25.6055C29.1211 27.5391 27.5391 29.1211 25.6055 29.1211H4.39453L2.63672 28.2422C2.84775 28.2422 3.51562 27.3104 3.51562 25.6055C3.51562 23.9003 2.84775 22.9688 2.63672 22.9688L4.39453 22.0898H25.6055C27.5391 22.0898 29.1211 23.6719 29.1211 25.6055Z" fill="#B9DFFC"/>
<path class="p-F9D8B4" d="M29.1211 25.6055C29.1211 27.5391 27.5391 29.1211 25.6055 29.1211H4.39453L2.63672 28.2422C2.84775 28.2422 3.51562 27.3104 3.51562 25.6055H29.1211Z" fill="#A1D1FD"/>
<path class="p-804231" d="M30 25.6055C30 28.0312 28.0312 30 25.6055 30H0.878906C0.3935 30 0 29.6065 0 29.1211C0 28.6357 0.3935 28.2422 0.878906 28.2422H25.6055C27.0646 28.2422 28.2422 27.0644 28.2422 25.6055C28.2422 24.1463 27.0646 22.9688 25.6055 22.9688H0.878906C0.3935 22.9688 0 22.5753 0 22.0898C0 21.6044 0.3935 21.2109 0.878906 21.2109H25.6055C28.0312 21.2109 30 23.1798 30 25.6055Z" fill="#5FBEFF"/>
<path class="p-663325" d="M30 25.6055C30 28.0312 28.0312 30 25.6055 30H0.878906C0.3935 30 0 29.6065 0 29.1211C0 28.6357 0.3935 28.2422 0.878906 28.2422H25.6055C27.0646 28.2422 28.2422 27.0644 28.2422 25.6055H30Z" fill="#4D98CB"/>
<path class="p-FAECD8" d="M0.878906 16.8164C0.878906 18.75 2.46094 20.332 4.39453 20.332H25.6055L27.3633 19.4531C27.1523 19.4531 26.4844 18.5213 26.4844 16.8164C26.4844 15.1112 27.1523 14.1797 27.3633 14.1797L25.6055 13.3008H4.39453C2.46094 13.3008 0.878906 14.8828 0.878906 16.8164Z" fill="#B9DFFC"/>
<path class="p-F9D8B4" d="M0.878906 16.8164C0.878906 18.75 2.46094 20.332 4.39453 20.332H25.6055L27.3633 19.4531C27.1523 19.4531 26.4844 18.5213 26.4844 16.8164H0.878906Z" fill="#A1D1FD"/>
<path class="p-FF4B00" d="M0 16.8164C0 19.2421 1.96884 21.2109 4.39453 21.2109H29.1211C29.6065 21.2109 30 20.8174 30 20.332C30 19.8466 29.6065 19.4531 29.1211 19.4531H4.39453C2.93541 19.4531 1.75781 18.2753 1.75781 16.8164C1.75781 15.3573 2.93541 14.1797 4.39453 14.1797H29.1211C29.6065 14.1797 30 13.7862 30 13.3008C30 12.8154 29.6065 12.4219 29.1211 12.4219H4.39453C1.96884 12.4219 0 14.3907 0 16.8164Z" fill="#65B3E7"/>
<path class="p-DD3400" d="M0 16.8164C0 19.2421 1.96884 21.2109 4.39453 21.2109H29.1211C29.6065 21.2109 30 20.8174 30 20.332C30 19.8466 29.6065 19.4531 29.1211 19.4531H4.39453C2.93541 19.4531 1.75781 18.2753 1.75781 16.8164H0Z" fill="#58ADE5"/>
<path class="p-582B1F" d="M17.7832 5.33203H16.0254C16.0254 4.83971 15.4923 4.45312 15 4.45312V2.69531C16.4591 2.69531 17.7832 3.87291 17.7832 5.33203Z" fill="#4D98CB"/>
<path class="p-663325" d="M7.91016 12.4219C4.51813 12.4219 1.75781 9.60297 1.75781 6.21094C1.75781 2.81891 4.51813 0 7.91016 0C11.3022 0 14.0625 2.81891 14.0625 6.21094C14.0625 9.60297 11.3022 12.4219 7.91016 12.4219Z" fill="#4D98CB"/>
<path class="p-582B1F" d="M22.0898 12.4219C18.6978 12.4219 15.9375 9.60297 15.9375 6.21094C15.9375 2.81891 18.6978 0 22.0898 0C25.4819 0 28.2422 2.81891 28.2422 6.21094C28.2422 9.60297 25.4819 12.4219 22.0898 12.4219Z" fill="#4D98CB"/>
<path class="p-FAECD8" d="M7.91016 1.81641C5.48721 1.81641 3.51562 3.78799 3.51562 6.21094C3.51562 8.63388 5.48721 10.6641 7.91016 10.6641C10.3331 10.6641 12.3047 8.63388 12.3047 6.21094C12.3047 3.78799 10.3331 1.81641 7.91016 1.81641Z" fill="#B9DFFC"/>
<path class="p-F9D8B4" d="M22.0898 1.81641C19.6669 1.81641 17.6953 3.78799 17.6953 6.21094C17.6953 8.63388 19.6669 10.6641 22.0898 10.6641C24.5128 10.6641 26.4844 8.63388 26.4844 6.21094C26.4844 3.78799 24.5128 1.81641 22.0898 1.81641Z" fill="#A1D1FD"/>
</svg>

<svg width="30" height="30" fill="none" xmlns="http://www.w3.org/2000/svg"><path class="p-663325" d="M17.783 5.332h-1.758c0-.492-.533-.879-1.025-.879-.492 0-1.025.387-1.025.879h-1.758c0-1.46 1.324-2.637 2.783-2.637 1.46 0 2.783 1.178 2.783 2.637z" fill="#4D98CB"/><path class="p-582B1F" d="M27.063 3.574h2.058a.879.879 0 010 1.758h-2.058V3.574z" fill="#4D98CB"/><path class="p-663325" d="M0 4.453c0-.485.394-.879.879-.879h2.058v1.758H.88A.879.879 0 010 4.453z" fill="#4D98CB"/><path class="p-FAECD8" d="M29.121 25.605a3.526 3.526 0 01-3.515 3.516H4.395l-1.758-.879c.21 0 .879-.932.879-2.637s-.668-2.636-.88-2.636l1.759-.88h21.21a3.526 3.526 0 013.516 3.517z" fill="#B9DFFC"/><path class="p-F9D8B4" d="M29.121 25.605a3.526 3.526 0 01-3.515 3.516H4.395l-1.758-.879c.21 0 .879-.932.879-2.637H29.12z" fill="#A1D1FD"/><path class="p-804231" d="M30 25.605A4.396 4.396 0 0125.605 30H.88a.879.879 0 110-1.758h24.726a2.633 2.633 0 002.637-2.637 2.633 2.633 0 00-2.637-2.636H.88a.879.879 0 010-1.758h24.726A4.396 4.396 0 0130 25.606z" fill="#5FBEFF"/><path class="p-663325" d="M30 25.605A4.396 4.396 0 0125.605 30H.88a.879.879 0 110-1.758h24.726a2.633 2.633 0 002.637-2.637H30z" fill="#4D98CB"/><path class="p-FAECD8" d="M.879 16.816a3.526 3.526 0 003.516 3.516h21.21l1.758-.879c-.21 0-.879-.932-.879-2.637s.668-2.636.88-2.636l-1.759-.88H4.395a3.526 3.526 0 00-3.516 3.516z" fill="#B9DFFC"/><path class="p-F9D8B4" d="M.879 16.816a3.526 3.526 0 003.516 3.516h21.21l1.758-.879c-.21 0-.879-.932-.879-2.637H.88z" fill="#A1D1FD"/><path class="p-FF4B00" d="M0 16.816a4.396 4.396 0 004.395 4.395H29.12a.879.879 0 000-1.758H4.395a2.633 2.633 0 01-2.637-2.637 2.633 2.633 0 012.637-2.636H29.12a.879.879 0 000-1.758H4.395A4.396 4.396 0 000 16.816z" fill="#65B3E7"/><path class="p-DD3400" d="M0 16.816a4.396 4.396 0 004.395 4.395H29.12a.879.879 0 000-1.758H4.395a2.633 2.633 0 01-2.637-2.637H0z" fill="#58ADE5"/><path class="p-582B1F" d="M17.783 5.332h-1.758c0-.492-.533-.879-1.025-.879V2.695c1.46 0 2.783 1.178 2.783 2.637z" fill="#4D98CB"/><path class="p-663325" d="M7.91 12.422c-3.392 0-6.152-2.819-6.152-6.211C1.758 2.819 4.518 0 7.91 0c3.392 0 6.152 2.819 6.152 6.21 0 3.393-2.76 6.212-6.152 6.212z" fill="#4D98CB"/><path class="p-582B1F" d="M22.09 12.422c-3.392 0-6.152-2.819-6.152-6.211C15.938 2.819 18.697 0 22.09 0c3.392 0 6.152 2.819 6.152 6.21 0 3.393-2.76 6.212-6.152 6.212z" fill="#4D98CB"/><path class="p-FAECD8" d="M7.91 1.816a4.4 4.4 0 00-4.394 4.395c0 2.423 1.971 4.453 4.394 4.453s4.395-2.03 4.395-4.453A4.4 4.4 0 007.91 1.816z" fill="#B9DFFC"/><path class="p-F9D8B4" d="M22.09 1.816a4.4 4.4 0 00-4.395 4.395c0 2.423 1.972 4.453 4.395 4.453 2.423 0 4.394-2.03 4.394-4.453a4.4 4.4 0 00-4.394-4.395z" fill="#A1D1FD"/></svg>
